X: 1
T: Hendon Road
C: Joe Molloy
M: 4/4
L: 1/8
R: reel
K: Dmin
dfed cAGE|F2EF DEFD|B,CDE FGAd|cAGc Addc|
dfed cAGE|FDEF DEFD|B,CDE FGAB|A2ag fddc:|
|:defg afgf|ec~c2 acgc|defg afge|fedc Addc|
defg afgf|ec~c2 acgc|afge fedc|A2ag fddc:|
